X:1
T:Rejoice, Ye Pure in Heart
T:Rejoice, Ye Pure in Heart
%%score ( 1 2 ) ( 3 4 )
L:1/8
M:4/4
K:F
V:1 treble nm="Piano" snm="Pno."
V:2 treble 
V:3 bass nm="Piano" snm="Pno."
V:4 bass 
V:1
 [CF]2 | [Cc]2 AG F2 [CG]2 | [CA]6 [^CA]2 | [DA]2 [DF][EG] [FA]2 [F=B]2 | [Ec]6 | [_Ec]2 | %6
w: 1~Re-|joice ye _ pure in|heart, re-|joice, give _ thanks, and|sing;|your|
w: 2~Bright|youth and _ snow- crowned|age, strong|souls and _ spi- rits|meek,|raise|
w: 3~With|voice as _ full and|strong as|o- cean's _ sur- ging|praise,|send|
w: 4~Yes,|on through _ life’s long|path, still|chan- ting _ as you|go,|from|
 [Dd]2 cB [DA]2 [DA]2 | AG ^FG [DA]2 D2 | [DG]2 [DA]2 [DB]2 [CA]2 | [CG]6 |"^Refrain" [Cc]2 | %11
w: fes- tal _ ban- ner|wave _ on _ high, the|cross of Christ your|King.|Re-|
w: high your _ free, ex-|ul- * ting _ song, God's|won- drous prai- ses|speak.||
w: forth the _ hymns the|saints _ have _ loved, the|psalms of an- cient|days.||
w: youth to _ age, by|night _ and _ day, in|glad- ness and in|woe.||
 [Cc]6 [Cc]2 | [Cc]6 [Fc]2 | [FB]2 AG [FA]2 [EG]2 | F6 |] %15
w: joice, re-|joice, re-|joice, give _ thanks and|sing.|
w: ||||
w: ||||
w: ||||
V:2
 x2 | x2 E2 F2 x2 | x8 | x8 | x6 | x2 | x2 D2 x4 | D2 ^C2 x2 D2 | x8 | x6 | x2 | x8 | x8 | %13
 x2 F2 x4 | F6 |] %15
V:3
 [F,A,]2 | [E,G,]2 CB, [D,A,]2 [C,E,]2 | F,6 [E,G,]2 | [D,F,]2 [F,A,][E,G,] [D,F,]2 [D,G,]2 | %4
w: ||||
 [C,G,]6 | [F,A,]2 | [B,,B,]2 A,G, [D,G,]2 [D,^F,]2 | [E,G,]2 A,G, [D,^F,]2 [=C,F,]2 | %8
w: ||||
 [B,,G,]2 [A,,=F,]2 [G,,F,]2 F,2 | [C,E,]6 | z2 | z2 [C,E,][D,F,] [E,G,]4 | %12
w: |||Re- * joice|
 z2 [D,F,][E,G,] [F,A,]2 [_E,A,]2 | [D,B,]2 [C,C][B,,D] [C,C]2 [C,B,]2 | [F,,F,A,]6 |] %15
w: re- * joice *|||
V:4
 x2 | x2 C,2 x4 | F,6 x2 | x8 | x6 | x2 | x2 B,,2 x4 | x2 A,,2 x4 | x6 A,,B,, | x6 | x2 | x8 | x8 | %13
 x8 | x6 |] %15

